X:1285
T:"Ballinasloe Fair"   (reel)     1285
C:after Mr. McFadden
B:O'Neill's Music Of Ireland (The 1850) Lyon & Healy, Chicago, 1903 edition
Z:FROM O'NEILL'S TO NOTEWORTHY, FROM NOTEWORTHY TO ABC, MIDI AND .TXT BY VINCE
BRENNAN July 2003 (HTTP://WWW.SOSYOURMOM.COM)
I:abc2nwc
M:C|
L:1/8
K:C
(cB)"^Segno"|AGAB TRcBcA|GECE GFGB|AGAB TRcBca|gedB cedB|
AGAB TRcBcA|GECE GFGB|AGAB TRcBca|gede cdef"^Fine"||
g3/2c/2 ((3{d}cBc) gcac|gc ( (3{d}cBc) Bcdf|gc ((3{d}cBc) TRagaa|gede cdef|
gc ((3{d}cBc) gcac|gc ((3{d}cBc) BcdB|AGAB cdea|gede ced"^D.S. al Fine"B|]
